X:129
U: ~ = !turn!
%%topmargin 3cm
T:Mo Bhaidin
B:Traditional Irish Fiddle Tunes. Randy Miller and Jack Perron.
Z:Transcribed by Ralph Palmer
S:Mary O'Hara
R:Air
L:1/8
M:C
K:D
D2 DD D2 FG | A2 FF F4 | d2 ed c2 dc | Bc BA F3 E |
D2 DD D2 FG | A2 FF B4 | A2 F2 D2 E2 | D4 D4 ||
D4 D2 FG | A2 F2 F4 | E4 c2 A2 | B4 A4 |
d2 ed c2 dc | Bc BA F2 B2 | A2 F2 D2 E2 | D4 D4 |]
